images/profile-icon-pc.svg

<svg width="28" height="29" viewBox="0 0 28 29" fill="none" xmlns="http://www.w3.org/2000/svg">
<path fill-rule="evenodd" clip-rule="evenodd" d="M18.5207 9.28873C18.5207 12.0587 16.4361 14.2066 14.006 14.2066C11.5759 14.2066 9.49117 12.0587 9.49117 9.31221C9.47931 6.60094 11.5878 4.5 14.006 4.5C16.4241 4.5 18.5207 6.55399 18.5207 9.28873ZM4.5 22.9977C4.5 23.9836 5.14326 24.5 6.94201 24.5H21.058C22.8567 24.5 23.5 23.9836 23.5 22.9977C23.5 20.1338 19.8429 16.1901 14.006 16.1901C8.15705 16.1901 4.5 20.1338 4.5 22.9977Z" fill="white"/>
</svg>

<svg width="28" height="29" fill="none" xmlns="http://www.w3.org/2000/svg"><path fill-rule="evenodd" clip-rule="evenodd" d="M18.52 9.289c0 2.77-2.084 4.918-4.514 4.918s-4.515-2.148-4.515-4.895C9.48 6.601 11.588 4.5 14.006 4.5c2.418 0 4.515 2.054 4.515 4.789zM4.5 22.998c0 .986.643 1.502 2.442 1.502h14.116c1.799 0 2.442-.516 2.442-1.502 0-2.864-3.657-6.808-9.494-6.808-5.849 0-9.506 3.944-9.506 6.808z" fill="#fff"/></svg>
